X: 4
T: The Bag Of Spuds
R: reel
M: 4/4
L: 1/8
K: Gmaj
|:Bdd2 =ceed | BddB ABGA | Bdd2 =ceed | gabg abag:||:gabg eaaf | gbag efede | gbag eaaf | gedb abag:|


Tune 391	Setting 391

